dist/img/factory.svg

<?xml version="1.0" encoding="UTF-8"?>
<svg width="50px" height="50px" viewBox="0 0 50 50" version="1.1" xmlns="http://www.w3.org/2000/svg" xmlns:xlink="http://www.w3.org/1999/xlink">
    <!-- Generator: sketchtool 52.5 (67469) - http://www.bohemiancoding.com/sketch -->
    <title>C7CFF708-904E-4AC2-8E48-6707AEB219FD</title>
    <desc>Created with sketchtool.</desc>
    <g id="Page-1" stroke="none" stroke-width="1" fill="none" fill-rule="evenodd">
        <g id="desktop" transform="translate(-583.000000, -891.000000)" fill="#80BA27" fill-rule="nonzero">
            <g id="Factory_000000" transform="translate(583.000000, 891.000000)">
                <path d="M39.09375,0 C37.66169,0 36.404534,1.1139264 36.34375,2.59375 L36.3125,2.59375 L36.3125,2.6875 L34.4375,22.09375 C34.3006183,22.0298604 34.151042,21.9978084 34,22 L33,22 L33,16 C33.0023806,15.6541222 32.8258718,15.3315679 32.5332779,15.1471065 C32.2406841,14.9626452 31.8735473,14.9424664 31.5625,15.09375 L17,21.875 L17,17 C16.9970381,16.6506185 16.8119572,16.3281123 16.5117923,16.1492906 C16.2116274,15.970469 15.8399011,15.9612603 15.53125,16.125 L0.53125,24.125 C0.207007707,24.2970714 0.00308668413,24.6329413 1.11033405e-16,25 L0,49 C5.52179054e-05,49.5522619 0.447738124,49.9999448 1,50 L49,50 C49.2763997,50.0005109 49.5406866,49.8866096 49.7301215,49.6853349 C49.9195564,49.4840603 50.0172461,49.2133616 50,48.9375 L47.1875,2.75 C47.1881511,2.72917175 47.1881511,2.70832825 47.1875,2.6875 C47.040211,1.214611 45.898843,0 44.40625,0 L39.09375,0 Z M39.09375,2 L44.40625,2 C44.702512,2 45.109968,2.3780876 45.1875,2.875 L47.9375,48 L2,48 L2,25.59375 L15,18.65625 L15,23 C15.0000552,23.5522619 15.4477381,23.9999448 16,24 L17,24 C17.151042,24.0021916 17.3006183,23.9701396 17.4375,23.90625 L31,17.5625 L31,23 C31.0000552,23.5522619 31.4477381,23.9999448 32,24 L33,24 L33,36.90625 L33,37 C32.9741117,37.5522847 33.4008403,38.0209866 33.953125,38.0468749 C34.5054097,38.0727633 34.9741116,37.6460347 35,37.09375 L35,37 L38.28125,2.78125 C38.2932052,2.75053405 38.3036346,2.71924586 38.3125,2.6875 C38.3125,2.2208333 38.560417,2 39.09375,2 Z M7,27 L7,32 L10,32 L10,27 L7,27 Z M16,27 L16,32 L19,32 L19,27 L16,27 Z M25,27 L25,32 L28,32 L28,27 L25,27 Z M7,36 L7,41 L10,41 L10,36 L7,36 Z M16,36 L16,41 L19,41 L19,36 L16,36 Z M25,36 L25,41 L28,41 L28,36 L25,36 Z" id="Shape"></path>
            </g>
        </g>
    </g>
</svg>

<svg width="50" height="50" viewBox="0 0 50 50" xmlns="http://www.w3.org/2000/svg" xmlns:xlink="http://www.w3.org/1999/xlink"><g id="Page-1" stroke="none" stroke-width="1" fill="none" fill-rule="evenodd"><g id="desktop" transform="translate(-583 -891)" fill="#80BA27" fill-rule="nonzero"><g id="Factory_000000" transform="translate(583 891)"><path d="M39.094 0c-1.432 0-2.69 1.114-2.75 2.594h-.032v.094l-1.874 19.406A1 1 0 0 0 34 22h-1v-6a1 1 0 0 0-1.438-.906L17 21.875V17a1 1 0 0 0-1.469-.875l-15 8A1 1 0 0 0 0 25v24a1 1 0 0 0 1 1h48a1 1 0 0 0 1-1.063L47.187 2.75a1 1 0 0 0 0-.063C47.04 1.216 45.9 0 44.407 0h-5.313zm0 2h5.312c.297 0 .704.378.782.875L47.938 48H2V25.594l13-6.938V23a1 1 0 0 0 1 1h1a1 1 0 0 0 .438-.094L31 17.563V23a1 1 0 0 0 1 1h1v13a1.001 1.001 0 0 0 2 .094V37l3.281-34.219a1 1 0 0 0 .032-.094c0-.466.247-.687.78-.687zM7 27v5h3v-5H7zm9 0v5h3v-5h-3zm9 0v5h3v-5h-3zM7 36v5h3v-5H7zm9 0v5h3v-5h-3zm9 0v5h3v-5h-3z" id="Shape"/></g></g></g></svg>
